packages/elvis-assets-icons/icons/svg/src/web_library-color.svg

<svg width="24" height="24" viewBox="0 0 24 24" fill="none" xmlns="http://www.w3.org/2000/svg">
<g clip-path="url(#clip0)">
<path d="M23.19 4.42998C22.9343 4.20534 22.6329 4.03892 22.3065 3.94223C21.9802 3.84554 21.6368 3.82089 21.3 3.86998C18.0679 4.3731 15.037 5.75709 12.54 7.86998C12.3777 7.96791 12.1891 8.01331 12 7.99998C11.8163 7.99857 11.6378 7.93906 11.49 7.82998C8.98599 5.70988 5.94337 4.3253 2.69999 3.82998C2.36632 3.78185 2.02618 3.80702 1.70323 3.90373C1.38028 4.00044 1.08228 4.16637 0.82999 4.38998C0.566803 4.61405 0.356049 4.8932 0.212627 5.20769C0.0692044 5.52218 -0.00338489 5.86434 -9.53037e-06 6.20998V17.43C0.00230028 18.0005 0.211241 18.551 0.588136 18.9793C0.965032 19.4077 1.48436 19.685 2.04999 19.76C5.1868 20.1533 8.14078 21.453 10.55 23.5C10.9642 23.8234 11.4745 23.9994 12 24C12.5286 23.9993 13.042 23.8235 13.46 23.5C15.8771 21.4409 18.8476 20.14 22 19.76C22.5565 19.6741 23.064 19.392 23.4308 18.9647C23.7975 18.5374 23.9994 17.9931 24 17.43V6.20998C24.0007 5.87252 23.9287 5.53887 23.7889 5.23172C23.6492 4.92457 23.4449 4.65112 23.19 4.42998ZM2.18999 18.27C1.98583 18.2433 1.79828 18.1435 1.66218 17.989C1.52608 17.8345 1.45068 17.6359 1.44999 17.43V6.20998C1.45259 5.9827 1.54403 5.76546 1.70475 5.60474C1.86547 5.44402 2.08271 5.35257 2.30999 5.34998H2.42999C5.41835 5.79493 8.22528 7.05822 10.54 8.99998C10.7552 9.16317 10.9948 9.29141 11.25 9.37998V22.15C8.67364 20.0312 5.54962 18.6859 2.23999 18.27H2.18999ZM22.45 17.43C22.4496 17.6344 22.3756 17.8318 22.2416 17.9861C22.1075 18.1403 21.9223 18.2411 21.72 18.27C18.4149 18.6915 15.2956 20.0362 12.72 22.15V9.40998C12.9967 9.31484 13.2566 9.17646 13.49 8.99998C15.7697 7.0662 18.5372 5.79657 21.49 5.32998C21.6141 5.30949 21.7411 5.31647 21.8622 5.35042C21.9833 5.38437 22.0955 5.44446 22.1908 5.52645C22.2862 5.60845 22.3624 5.71036 22.4141 5.82501C22.4657 5.93965 22.4917 6.06423 22.49 6.18998L22.45 17.43Z" fill="black"/>
<path d="M3.81 1.48001C6.2835 2.1006 8.58437 3.27326 10.54 4.91001C10.9585 5.24094 11.4764 5.42097 12.01 5.42097C12.5435 5.42097 13.0615 5.24094 13.48 4.91001C15.4396 3.28361 17.7396 2.11824 20.21 1.50001C20.402 1.45052 20.5666 1.32701 20.6678 1.15647C20.769 0.985935 20.7986 0.782263 20.75 0.590005C20.7298 0.491072 20.6902 0.39715 20.6333 0.313723C20.5764 0.230297 20.5035 0.159038 20.4188 0.104111C20.334 0.0491827 20.2392 0.0116865 20.1399 -0.00618809C20.0405 -0.0240627 19.9385 -0.0219573 19.84 5.03659e-06C17.1627 0.677634 14.6694 1.94139 12.54 3.70001C12.388 3.81678 12.2017 3.88008 12.01 3.88008C11.8183 3.88008 11.632 3.81678 11.48 3.70001C9.34993 1.93669 6.85221 0.672454 4.17 5.03659e-06C3.97652 -0.0455219 3.7729 -0.0134415 3.6028 0.0893698C3.43269 0.192181 3.30963 0.357541 3.26 0.550005C3.23307 0.647217 3.22604 0.74886 3.23931 0.848855C3.25258 0.948849 3.28588 1.04514 3.33723 1.13196C3.38858 1.21879 3.45691 1.29436 3.53815 1.35416C3.61938 1.41396 3.71184 1.45677 3.81 1.48001Z" fill="#29D305"/>
</g>
<defs>
<clipPath id="clip0">
<path d="M0 0H24V24H0V0Z" fill="white"/>
</clipPath>
</defs>
</svg>

<svg width="24" height="24" fill="none" xmlns="http://www.w3.org/2000/svg"><g clip-path="url(#clip0)"><path d="M23.19 4.43a2.35 2.35 0 00-1.89-.56 17.8 17.8 0 00-8.76 4A.92.92 0 0112 8a.87.87 0 01-.51-.17 17.75 17.75 0 00-8.79-4 2.32 2.32 0 00-1.87.56A2.36 2.36 0 000 6.21v11.22a2.36 2.36 0 002.05 2.33 16.25 16.25 0 018.5 3.74c.414.323.925.5 1.45.5a2.39 2.39 0 001.46-.5A16.15 16.15 0 0122 19.76a2.36 2.36 0 002-2.33V6.21a2.35 2.35 0 00-.81-1.78zm-21 13.84a.85.85 0 01-.74-.84V6.21a.87.87 0 01.86-.86h.12A16.37 16.37 0 0110.54 9c.215.163.455.291.71.38v12.77a17.65 17.65 0 00-9.01-3.88h-.05zm20.26-.84a.85.85 0 01-.73.84 17.72 17.72 0 00-9 3.88V9.41a2.77 2.77 0 00.77-.41 16.3 16.3 0 018-3.67.86.86 0 011 .86l-.04 11.24z" fill="#000"/><path d="M3.81 1.48a16.89 16.89 0 016.73 3.43 2.37 2.37 0 002.94 0 17 17 0 016.73-3.41.75.75 0 00.54-.91.76.76 0 00-.91-.59 18.65 18.65 0 00-7.3 3.7.87.87 0 01-1.06 0A18.53 18.53 0 004.17 0a.76.76 0 00-.91.55.75.75 0 00.55.93z" fill="#29D305"/></g><defs><clipPath id="clip0"><path d="M0 0h24v24H0V0z" fill="#fff"/></clipPath></defs></svg>
